X:032 
T:Chain the Pony 
F:file ID: cre.5/032chain_p
B:CRE5.073 (Cuir an Slabhra ar an bPÃÂÃÂÃÂÃÂ³naÃÂÃÂÃÂÃÂ­)
N:Breathnach's Gaelic title translates to "Put the Chain on the Pony". 
I have 'traditionalized' it a little (using the "Verb the Noun" template)!
Q:180
M:12/8
R:slide
K:D
G|FAB dcd eAG A2g|fAB dcd eAG A3|
fef geB d2c dcB|ABA GFE D3D2:|
|:g|a2b a2g faf efd|ede ede gfe dcB|
A2z a2g fga efd|1 ede gfe d3d2:|\
[2 ede gfe Hd6|]

%%%

